X:41
T:Le furet
Z:Transcrit et/ou corrig? par Michel BELLON - 2007-04-27
Z:Pour toute observation mailto:galouvielle@free.fr
M:2/4
L:1/8
Q:1/4=132
K:C
V:1
P:Intro
""Z4 | ""z4 S || ""zG cd [P:A] | e2 dd |
w:Il court il court le fu-
"F"A2 cB | "F"AG AB | "C"cG cd | "C"e2 dd |
w:ret le fu-ret du bois Ma-dam' il court il court le fu-
"F"A2 cB | "F"AG AB | "G7"!breath!c2 cB [P:B]|| "F"AG AB |
w:ret le fu-ret du bois jo-li Il a pas-s? par i-
"C"c2 cB | "F"AG AB | "C"c2 cB | "F"AG AB |
w:ci il re-pas-se-ra par l? Il a pas-s? par i-
"C"cG cB | "F"AG AB | "G7"!breath!c2 e2 | "C"c2 z2 S |]
w:ci_ le fu-ret du bois jo-li qui l'a
V:2
Z4 | z4 || z2z2 |zG cd |
e2 ed | A2 cB | AG AB | cG dd |
e2 ed | AB cd | !breath!c2 z2 || z4 |
z2 CB, | A,G, A,B, | C2 z2 | z4 | 
zG, CB, | A,G, A,B, | !breath!C2 G2 | E2 z2 |]
<end>
<start>
